X: 1
T: The Dancing Man
T: 8x32R 3C (Goldring, 10 Social Dances)
P: Bob Campbell
C: by Muriel Johnstone, arr. T. Traub 11-21-2010
M: 4/4
L: 1/8
R: Reel
K: G
|: D2|"G"G2 BG "Am"AGEF|"G"GABd "C"e2 eg|"G"dgBd "Am"cBAG|"C" AcEA "D"GFED|
"G"G2 BG "Am"AGEF|"G"GABd "C"e2 eg|"G"dgBd "D"cAFA|"G"G2 B2 G2 :|
|: d2|"G"g2 bg "Am"agef|"G"gabg d2 ef|"G"g2 bg agef|"C"gedB "D"A2 (3def|
"G"g2 bg "Am"agef|"G"gbag "C"e2 eg|"G"dgBd "D"cAFA|"G"G2 B2 G2 :|